X:139 
T:Monasterevin Fancy (reel), The
F:file ID: cre.5/139mon_f
B:CRE5.189 (Rogha Mhainister EimhÃÂÃÂÃÂÃÂ­n)
M:4/4
N:I have taken the liberty of restructuring this 
tune into more of an A-B-A shape, but of course
it can be played without the second A part.
Q:180
R:reel
K:G
Bc|:dcBG DGBG|dGBG cBce|dcBG DGBG|cAFG ABcA:|
dg~g2 defe|dggB c2Bc|dg~g2 defe|dcAB c2Bc|
dg~g2 defe|dggB c2Bc|dg~g2 afgf|dcAB BcAc||
P:repeat of part A
dcBG DGBG|dGBG cBce|dcBG DGBG|cAFG ABcA|
dcBG DGBG|dGBG cBce|dcBG DGBG|"fine"cBAF G4|]


%%%

